images/127861.svg

<?xml version="1.0" encoding="UTF-8"?>
<svg xmlns="http://www.w3.org/2000/svg" xmlns:xlink="http://www.w3.org/1999/xlink" width="300pt" height="300pt" viewBox="0 0 300 300" version="1.1">
<defs>
<g>
<symbol overflow="visible" id="glyph0-0">
<path style="stroke:none;" d="M 0.453125 1.59375 L 0.453125 -6.34375 L 4.953125 -6.34375 L 4.953125 1.59375 Z M 0.953125 1.09375 L 4.453125 1.09375 L 4.453125 -5.84375 L 0.953125 -5.84375 Z M 0.953125 1.09375 "/>
</symbol>
<symbol overflow="visible" id="glyph0-1">
<path style="stroke:none;" d="M 3.546875 -5.953125 C 2.898438 -5.953125 2.382812 -5.710938 2 -5.234375 C 1.625 -4.753906 1.4375 -4.101562 1.4375 -3.28125 C 1.4375 -2.445312 1.625 -1.789062 2 -1.3125 C 2.382812 -0.832031 2.898438 -0.59375 3.546875 -0.59375 C 4.191406 -0.59375 4.703125 -0.832031 5.078125 -1.3125 C 5.453125 -1.789062 5.640625 -2.445312 5.640625 -3.28125 C 5.640625 -4.101562 5.453125 -4.753906 5.078125 -5.234375 C 4.703125 -5.710938 4.191406 -5.953125 3.546875 -5.953125 Z M 3.546875 -6.6875 C 4.460938 -6.6875 5.195312 -6.375 5.75 -5.75 C 6.300781 -5.132812 6.578125 -4.3125 6.578125 -3.28125 C 6.578125 -2.238281 6.300781 -1.410156 5.75 -0.796875 C 5.195312 -0.179688 4.460938 0.125 3.546875 0.125 C 2.617188 0.125 1.878906 -0.179688 1.328125 -0.796875 C 0.773438 -1.410156 0.5 -2.238281 0.5 -3.28125 C 0.5 -4.3125 0.773438 -5.132812 1.328125 -5.75 C 1.878906 -6.375 2.617188 -6.6875 3.546875 -6.6875 Z M 3.546875 -6.6875 "/>
</symbol>
<symbol overflow="visible" id="glyph0-2">
<path style="stroke:none;" d="M 0.890625 -6.5625 L 2.078125 -6.5625 L 4.984375 -1.078125 L 4.984375 -6.5625 L 5.84375 -6.5625 L 5.84375 0 L 4.65625 0 L 1.75 -5.484375 L 1.75 0 L 0.890625 0 Z M 0.890625 -6.5625 "/>
</symbol>
<symbol overflow="visible" id="glyph0-3">
<path style="stroke:none;" d="M 0.890625 -6.5625 L 1.765625 -6.5625 L 1.765625 -3.875 L 5 -3.875 L 5 -6.5625 L 5.890625 -6.5625 L 5.890625 0 L 5 0 L 5 -3.125 L 1.765625 -3.125 L 1.765625 0 L 0.890625 0 Z M 0.890625 -6.5625 "/>
</symbol>
</g>
</defs>
<g id="surface51425">
<rect x="0" y="0" width="300" height="300" style="fill:rgb(100%,100%,100%);fill-opacity:1;stroke:none;"/>
<path style="fill:none;stroke-width:1.2;stroke-linecap:butt;stroke-linejoin:miter;stroke:rgb(0%,0%,0%);stroke-opacity:1;stroke-miterlimit:10;" d="M 35.25 163.230469 L 45.457031 145.4375 "/>
<path style="fill:none;stroke-width:1.2;stroke-linecap:butt;stroke-linejoin:miter;stroke:rgb(0%,0%,0%);stroke-opacity:1;stroke-miterlimit:10;" d="M 40.457031 163.851562 L 48.621094 149.621094 "/>
<path style="fill:none;stroke-width:1.2;stroke-linecap:butt;stroke-linejoin:miter;stroke:rgb(0%,0%,0%);stroke-opacity:1;stroke-miterlimit:10;" d="M 45.554688 180.964844 L 35.25 163.230469 "/>
<path style="fill:none;stroke-width:1.2;stroke-linecap:butt;stroke-linejoin:miter;stroke:rgb(0%,0%,0%);stroke-opacity:1;stroke-miterlimit:10;" d="M 45.457031 145.4375 L 65.96875 145.382812 "/>
<path style="fill:none;stroke-width:1.2;stroke-linecap:butt;stroke-linejoin:miter;stroke:rgb(0%,0%,0%);stroke-opacity:1;stroke-miterlimit:10;" d="M 65.96875 145.382812 L 76.273438 163.117188 "/>
<path style="fill:none;stroke-width:1.2;stroke-linecap:butt;stroke-linejoin:miter;stroke:rgb(0%,0%,0%);stroke-opacity:1;stroke-miterlimit:10;" d="M 62.824219 149.582031 L 71.070312 163.769531 "/>
<path style="fill:none;stroke-width:1.2;stroke-linecap:butt;stroke-linejoin:miter;stroke:rgb(0%,0%,0%);stroke-opacity:1;stroke-miterlimit:10;" d="M 76.273438 163.117188 L 66.066406 180.910156 "/>
<path style="fill:none;stroke-width:1.2;stroke-linecap:butt;stroke-linejoin:miter;stroke:rgb(0%,0%,0%);stroke-opacity:1;stroke-miterlimit:10;" d="M 76.273438 163.117188 L 96.785156 163.0625 "/>
<path style="fill:none;stroke-width:1.2;stroke-linecap:butt;stroke-linejoin:miter;stroke:rgb(0%,0%,0%);stroke-opacity:1;stroke-miterlimit:10;" d="M 66.066406 180.910156 L 45.554688 180.964844 "/>
<path style="fill:none;stroke-width:1.2;stroke-linecap:butt;stroke-linejoin:miter;stroke:rgb(0%,0%,0%);stroke-opacity:1;stroke-miterlimit:10;" d="M 64 176.089844 L 47.59375 176.132812 "/>
<path style="fill:none;stroke-width:1.2;stroke-linecap:butt;stroke-linejoin:miter;stroke:rgb(0%,0%,0%);stroke-opacity:1;stroke-miterlimit:10;" d="M 96.785156 163.0625 L 108.792969 146.433594 "/>
<path style="fill:none;stroke-width:1.2;stroke-linecap:butt;stroke-linejoin:miter;stroke:rgb(0%,0%,0%);stroke-opacity:1;stroke-miterlimit:10;" d="M 101.898438 164.222656 L 111.503906 150.921875 "/>
<path style="fill:none;stroke-width:1.2;stroke-linecap:butt;stroke-linejoin:miter;stroke:rgb(0%,0%,100%);stroke-opacity:1;stroke-miterlimit:10;" d="M 108.886719 179.621094 L 102.835938 171.339844 "/>
<path style="fill:none;stroke-width:1.2;stroke-linecap:butt;stroke-linejoin:miter;stroke:rgb(0%,0%,0%);stroke-opacity:1;stroke-miterlimit:10;" d="M 102.835938 171.339844 L 96.785156 163.0625 "/>
<path style="fill:none;stroke-width:1.2;stroke-linecap:butt;stroke-linejoin:miter;stroke:rgb(0%,0%,0%);stroke-opacity:1;stroke-miterlimit:10;" d="M 108.792969 146.433594 L 118.558594 149.574219 "/>
<path style="fill:none;stroke-width:1.2;stroke-linecap:butt;stroke-linejoin:miter;stroke:rgb(100%,0%,0%);stroke-opacity:1;stroke-miterlimit:10;" d="M 118.558594 149.574219 L 128.320312 152.71875 "/>
<path style="fill:none;stroke-width:1.2;stroke-linecap:butt;stroke-linejoin:miter;stroke:rgb(0%,0%,0%);stroke-opacity:1;stroke-miterlimit:10;" d="M 108.792969 146.433594 L 102.402344 126.945312 "/>
<path style="fill:none;stroke-width:1.2;stroke-linecap:butt;stroke-linejoin:miter;stroke:rgb(100%,0%,0%);stroke-opacity:1;stroke-miterlimit:10;" d="M 128.320312 152.71875 L 128.347656 162.972656 "/>
<path style="fill:none;stroke-width:1.2;stroke-linecap:butt;stroke-linejoin:miter;stroke:rgb(0%,0%,0%);stroke-opacity:1;stroke-miterlimit:10;" d="M 128.347656 162.972656 L 128.375 173.230469 "/>
<path style=" stroke:none;fill-rule:nonzero;fill:rgb(100%,100%,100%);fill-opacity:1;" d="M 124.320312 147.21875 L 132.320312 147.21875 L 132.320312 158.21875 L 124.320312 158.21875 Z M 124.320312 147.21875 "/>
<g style="fill:rgb(100%,0%,0%);fill-opacity:1;">
  <use xlink:href="#glyph0-1" x="124.320312" y="155.881836"/>
</g>
<path style="fill:none;stroke-width:1.2;stroke-linecap:butt;stroke-linejoin:miter;stroke:rgb(0%,0%,0%);stroke-opacity:1;stroke-miterlimit:10;" d="M 128.375 173.230469 L 118.632812 176.425781 "/>
<path style="fill:none;stroke-width:1.2;stroke-linecap:butt;stroke-linejoin:miter;stroke:rgb(0%,0%,100%);stroke-opacity:1;stroke-miterlimit:10;" d="M 118.632812 176.425781 L 108.886719 179.621094 "/>
<path style="fill:none;stroke-width:1.2;stroke-linecap:butt;stroke-linejoin:miter;stroke:rgb(0%,0%,0%);stroke-opacity:1;stroke-miterlimit:10;" d="M 124.921875 169.28125 L 117.125 171.839844 "/>
<path style="fill:none;stroke-width:1.2;stroke-linecap:butt;stroke-linejoin:miter;stroke:rgb(0%,0%,100%);stroke-opacity:1;stroke-miterlimit:10;" d="M 117.125 171.839844 L 109.332031 174.398438 "/>
<path style="fill:none;stroke-width:1.2;stroke-linecap:butt;stroke-linejoin:miter;stroke:rgb(0%,0%,0%);stroke-opacity:1;stroke-miterlimit:10;" d="M 128.375 173.230469 L 145.003906 185.242188 "/>
<path style=" stroke:none;fill-rule:nonzero;fill:rgb(100%,100%,100%);fill-opacity:1;" d="M 105.886719 174.121094 L 112.886719 174.121094 L 112.886719 185.121094 L 105.886719 185.121094 Z M 105.886719 174.121094 "/>
<g style="fill:rgb(0%,0%,100%);fill-opacity:1;">
  <use xlink:href="#glyph0-2" x="105.886719" y="182.78418"/>
</g>
<path style="fill:none;stroke-width:1.2;stroke-linecap:butt;stroke-linejoin:miter;stroke:rgb(0%,0%,0%);stroke-opacity:1;stroke-miterlimit:10;" d="M 145.003906 185.242188 L 164.492188 178.847656 "/>
<path style="fill:none;stroke-width:1.2;stroke-linecap:butt;stroke-linejoin:miter;stroke:rgb(0%,0%,0%);stroke-opacity:1;stroke-miterlimit:10;" d="M 148.457031 189.1875 L 164.046875 184.074219 "/>
<path style="fill:none;stroke-width:1.2;stroke-linecap:butt;stroke-linejoin:miter;stroke:rgb(0%,0%,100%);stroke-opacity:1;stroke-miterlimit:10;" d="M 145.058594 205.75 L 145.03125 195.496094 "/>
<path style="fill:none;stroke-width:1.2;stroke-linecap:butt;stroke-linejoin:miter;stroke:rgb(0%,0%,0%);stroke-opacity:1;stroke-miterlimit:10;" d="M 145.03125 195.496094 L 145.003906 185.242188 "/>
<path style="fill:none;stroke-width:1.2;stroke-linecap:butt;stroke-linejoin:miter;stroke:rgb(0%,0%,0%);stroke-opacity:1;stroke-miterlimit:10;" d="M 164.492188 178.847656 L 170.542969 187.128906 "/>
<path style="fill:none;stroke-width:1.2;stroke-linecap:butt;stroke-linejoin:miter;stroke:rgb(100%,0%,0%);stroke-opacity:1;stroke-miterlimit:10;" d="M 170.542969 187.128906 L 176.59375 195.410156 "/>
<path style="fill:none;stroke-width:1.2;stroke-linecap:butt;stroke-linejoin:miter;stroke:rgb(0%,0%,0%);stroke-opacity:1;stroke-miterlimit:10;" d="M 164.492188 178.847656 L 170.777344 159.324219 "/>
<path style="fill:none;stroke-width:1.2;stroke-linecap:butt;stroke-linejoin:miter;stroke:rgb(100%,0%,0%);stroke-opacity:1;stroke-miterlimit:10;" d="M 176.59375 195.410156 L 170.589844 203.722656 "/>
<path style="fill:none;stroke-width:1.2;stroke-linecap:butt;stroke-linejoin:miter;stroke:rgb(0%,0%,0%);stroke-opacity:1;stroke-miterlimit:10;" d="M 170.589844 203.722656 L 164.585938 212.035156 "/>
<path style=" stroke:none;fill-rule:nonzero;fill:rgb(100%,100%,100%);fill-opacity:1;" d="M 172.59375 189.910156 L 180.59375 189.910156 L 180.59375 200.910156 L 172.59375 200.910156 Z M 172.59375 189.910156 "/>
<g style="fill:rgb(100%,0%,0%);fill-opacity:1;">
  <use xlink:href="#glyph0-1" x="172.59375" y="198.573242"/>
</g>
<path style="fill:none;stroke-width:1.2;stroke-linecap:butt;stroke-linejoin:miter;stroke:rgb(0%,0%,0%);stroke-opacity:1;stroke-miterlimit:10;" d="M 164.585938 212.035156 L 154.820312 208.894531 "/>
<path style="fill:none;stroke-width:1.2;stroke-linecap:butt;stroke-linejoin:miter;stroke:rgb(0%,0%,100%);stroke-opacity:1;stroke-miterlimit:10;" d="M 154.820312 208.894531 L 145.058594 205.75 "/>
<path style="fill:none;stroke-width:1.2;stroke-linecap:butt;stroke-linejoin:miter;stroke:rgb(0%,0%,0%);stroke-opacity:1;stroke-miterlimit:10;" d="M 164.109375 206.8125 L 156.300781 204.300781 "/>
<path style="fill:none;stroke-width:1.2;stroke-linecap:butt;stroke-linejoin:miter;stroke:rgb(0%,0%,100%);stroke-opacity:1;stroke-miterlimit:10;" d="M 156.300781 204.300781 L 148.492188 201.785156 "/>
<path style=" stroke:none;fill-rule:nonzero;fill:rgb(100%,100%,100%);fill-opacity:1;" d="M 142.058594 200.25 L 149.058594 200.25 L 149.058594 211.25 L 142.058594 211.25 Z M 142.058594 200.25 "/>
<g style="fill:rgb(0%,0%,100%);fill-opacity:1;">
  <use xlink:href="#glyph0-2" x="142.058594" y="208.913086"/>
</g>
<path style="fill:none;stroke-width:1.2;stroke-linecap:butt;stroke-linejoin:miter;stroke:rgb(0%,0%,0%);stroke-opacity:1;stroke-miterlimit:10;" d="M 170.777344 159.324219 L 190.828125 155.003906 "/>
<path style="fill:none;stroke-width:1.2;stroke-linecap:butt;stroke-linejoin:miter;stroke:rgb(0%,0%,0%);stroke-opacity:1;stroke-miterlimit:10;" d="M 171.765625 154.171875 L 187.808594 150.71875 "/>
<path style="fill:none;stroke-width:1.2;stroke-linecap:butt;stroke-linejoin:miter;stroke:rgb(0%,0%,0%);stroke-opacity:1;stroke-miterlimit:10;" d="M 157.011719 144.117188 L 170.777344 159.324219 "/>
<path style="fill:none;stroke-width:1.2;stroke-linecap:butt;stroke-linejoin:miter;stroke:rgb(0%,0%,0%);stroke-opacity:1;stroke-miterlimit:10;" d="M 190.828125 155.003906 L 197.113281 135.480469 "/>
<path style="fill:none;stroke-width:1.2;stroke-linecap:butt;stroke-linejoin:miter;stroke:rgb(0%,0%,0%);stroke-opacity:1;stroke-miterlimit:10;" d="M 197.113281 135.480469 L 183.347656 120.273438 "/>
<path style="fill:none;stroke-width:1.2;stroke-linecap:butt;stroke-linejoin:miter;stroke:rgb(0%,0%,0%);stroke-opacity:1;stroke-miterlimit:10;" d="M 192.160156 137.199219 L 181.144531 125.035156 "/>
<path style="fill:none;stroke-width:1.2;stroke-linecap:butt;stroke-linejoin:miter;stroke:rgb(0%,0%,0%);stroke-opacity:1;stroke-miterlimit:10;" d="M 197.113281 135.480469 L 207.140625 133.320312 "/>
<path style="fill:none;stroke-width:1.2;stroke-linecap:butt;stroke-linejoin:miter;stroke:rgb(100%,0%,0%);stroke-opacity:1;stroke-miterlimit:10;" d="M 207.140625 133.320312 L 217.164062 131.160156 "/>
<path style="fill:none;stroke-width:1.2;stroke-linecap:butt;stroke-linejoin:miter;stroke:rgb(0%,0%,0%);stroke-opacity:1;stroke-miterlimit:10;" d="M 183.347656 120.273438 L 163.296875 124.59375 "/>
<path style="fill:none;stroke-width:1.2;stroke-linecap:butt;stroke-linejoin:miter;stroke:rgb(0%,0%,0%);stroke-opacity:1;stroke-miterlimit:10;" d="M 163.296875 124.59375 L 157.011719 144.117188 "/>
<path style="fill:none;stroke-width:1.2;stroke-linecap:butt;stroke-linejoin:miter;stroke:rgb(0%,0%,0%);stroke-opacity:1;stroke-miterlimit:10;" d="M 167.261719 128.023438 L 162.234375 143.644531 "/>
<path style="fill:none;stroke-width:1.2;stroke-linecap:butt;stroke-linejoin:miter;stroke:rgb(100%,0%,0%);stroke-opacity:1;stroke-miterlimit:10;" d="M 217.164062 131.160156 L 224.046875 138.761719 "/>
<path style="fill:none;stroke-width:1.2;stroke-linecap:butt;stroke-linejoin:miter;stroke:rgb(0%,0%,0%);stroke-opacity:1;stroke-miterlimit:10;" d="M 224.046875 138.761719 L 230.933594 146.363281 "/>
<path style=" stroke:none;fill-rule:nonzero;fill:rgb(100%,100%,100%);fill-opacity:1;" d="M 213.164062 125.660156 L 221.164062 125.660156 L 221.164062 136.660156 L 213.164062 136.660156 Z M 213.164062 125.660156 "/>
<g style="fill:rgb(100%,0%,0%);fill-opacity:1;">
  <use xlink:href="#glyph0-1" x="213.164062" y="134.323242"/>
</g>
<path style="fill:none;stroke-width:1.2;stroke-linecap:butt;stroke-linejoin:miter;stroke:rgb(0%,0%,0%);stroke-opacity:1;stroke-miterlimit:10;" d="M 230.933594 146.363281 L 250.984375 142.042969 "/>
<path style="fill:none;stroke-width:1.2;stroke-linecap:butt;stroke-linejoin:miter;stroke:rgb(0%,0%,0%);stroke-opacity:1;stroke-miterlimit:10;" d="M 253.28125 142.785156 L 256.421875 133.023438 "/>
<path style="fill:none;stroke-width:1.2;stroke-linecap:butt;stroke-linejoin:miter;stroke:rgb(100%,0%,0%);stroke-opacity:1;stroke-miterlimit:10;" d="M 256.421875 133.023438 L 259.566406 123.257812 "/>
<path style="fill:none;stroke-width:1.2;stroke-linecap:butt;stroke-linejoin:miter;stroke:rgb(0%,0%,0%);stroke-opacity:1;stroke-miterlimit:10;" d="M 248.6875 141.304688 L 251.828125 131.542969 "/>
<path style="fill:none;stroke-width:1.2;stroke-linecap:butt;stroke-linejoin:miter;stroke:rgb(100%,0%,0%);stroke-opacity:1;stroke-miterlimit:10;" d="M 251.828125 131.542969 L 254.972656 121.78125 "/>
<path style="fill:none;stroke-width:1.2;stroke-linecap:butt;stroke-linejoin:miter;stroke:rgb(0%,0%,0%);stroke-opacity:1;stroke-miterlimit:10;" d="M 250.984375 142.042969 L 257.867188 149.648438 "/>
<path style="fill:none;stroke-width:1.2;stroke-linecap:butt;stroke-linejoin:miter;stroke:rgb(100%,0%,0%);stroke-opacity:1;stroke-miterlimit:10;" d="M 257.867188 149.648438 L 264.75 157.25 "/>
<path style=" stroke:none;fill-rule:nonzero;fill:rgb(100%,100%,100%);fill-opacity:1;" d="M 253.269531 117.019531 L 261.269531 117.019531 L 261.269531 128.019531 L 253.269531 128.019531 Z M 253.269531 117.019531 "/>
<g style="fill:rgb(100%,0%,0%);fill-opacity:1;">
  <use xlink:href="#glyph0-1" x="253.269531" y="125.682617"/>
</g>
<path style=" stroke:none;fill-rule:nonzero;fill:rgb(100%,100%,100%);fill-opacity:1;" d="M 257.75 151.75 L 272.75 151.75 L 272.75 162.75 L 257.75 162.75 Z M 257.75 151.75 "/>
<g style="fill:rgb(100%,0%,0%);fill-opacity:1;">
  <use xlink:href="#glyph0-1" x="257.75" y="160.413086"/>
  <use xlink:href="#glyph0-3" x="265.091797" y="160.413086"/>
</g>
<path style="fill:none;stroke-width:1.2;stroke-linecap:butt;stroke-linejoin:miter;stroke:rgb(0%,0%,0%);stroke-opacity:1;stroke-miterlimit:10;" d="M 102.402344 126.945312 L 116.085938 111.664062 "/>
<path style="fill:none;stroke-width:1.2;stroke-linecap:butt;stroke-linejoin:miter;stroke:rgb(0%,0%,0%);stroke-opacity:1;stroke-miterlimit:10;" d="M 100.175781 122.195312 L 111.121094 109.972656 "/>
<path style="fill:none;stroke-width:1.2;stroke-linecap:butt;stroke-linejoin:miter;stroke:rgb(0%,0%,0%);stroke-opacity:1;stroke-miterlimit:10;" d="M 82.328125 122.734375 L 102.402344 126.945312 "/>
<path style="fill:none;stroke-width:1.2;stroke-linecap:butt;stroke-linejoin:miter;stroke:rgb(0%,0%,0%);stroke-opacity:1;stroke-miterlimit:10;" d="M 116.085938 111.664062 L 109.695312 92.171875 "/>
<path style="fill:none;stroke-width:1.2;stroke-linecap:butt;stroke-linejoin:miter;stroke:rgb(0%,0%,0%);stroke-opacity:1;stroke-miterlimit:10;" d="M 109.695312 92.171875 L 89.617188 87.964844 "/>
<path style="fill:none;stroke-width:1.2;stroke-linecap:butt;stroke-linejoin:miter;stroke:rgb(0%,0%,0%);stroke-opacity:1;stroke-miterlimit:10;" d="M 106.695312 96.476562 L 90.636719 93.109375 "/>
<path style="fill:none;stroke-width:1.2;stroke-linecap:butt;stroke-linejoin:miter;stroke:rgb(0%,0%,0%);stroke-opacity:1;stroke-miterlimit:10;" d="M 89.617188 87.964844 L 75.9375 103.246094 "/>
<path style="fill:none;stroke-width:1.2;stroke-linecap:butt;stroke-linejoin:miter;stroke:rgb(0%,0%,0%);stroke-opacity:1;stroke-miterlimit:10;" d="M 75.9375 103.246094 L 82.328125 122.734375 "/>
<path style="fill:none;stroke-width:1.2;stroke-linecap:butt;stroke-linejoin:miter;stroke:rgb(0%,0%,0%);stroke-opacity:1;stroke-miterlimit:10;" d="M 81.160156 103.6875 L 86.273438 119.28125 "/>
</g>
</svg>

<svg xmlns="http://www.w3.org/2000/svg" xmlns:xlink="http://www.w3.org/1999/xlink" width="300pt" height="300pt" viewBox="0 0 300 300"><defs><symbol overflow="visible"><path d="M.453 1.594v-7.938h4.5v7.938zm.5-.5h3.5v-6.938h-3.5zm0 0"/></symbol><symbol overflow="visible" id="a"><path d="M3.547-5.953c-.65 0-1.164.242-1.547.72-.375.48-.563 1.13-.563 1.952 0 .835.188 1.49.563 1.967.383.48.898.72 1.547.72.644 0 1.156-.24 1.53-.72.376-.476.564-1.132.564-1.968 0-.822-.187-1.474-.562-1.954-.375-.477-.887-.72-1.53-.72zm0-.734c.914 0 1.648.312 2.203.937.55.617.828 1.438.828 2.47 0 1.042-.277 1.87-.828 2.483-.555.617-1.29.922-2.203.922-.93 0-1.668-.305-2.22-.922C.774-1.41.5-2.237.5-3.28c0-1.033.273-1.853.828-2.47.55-.625 1.29-.938 2.22-.938zm0 0"/></symbol><symbol overflow="visible" id="b"><path d="M.89-6.563H2.08l2.906 5.485v-5.484h.86V0H4.656L1.75-5.484V0H.89zm0 0"/></symbol><symbol overflow="visible" id="c"><path d="M.89-6.563h.876v2.688H5v-2.688h.89V0H5v-3.125H1.766V0H.89zm0 0"/></symbol></defs><g><path fill="#fff" d="M0 0h300v300H0z"/><path d="M35.25 163.23l10.207-17.792M40.457 163.852l8.164-14.23M45.555 180.965L35.25 163.23M45.457 145.438l20.512-.055M65.97 145.383l10.303 17.734M62.824 149.582l8.246 14.188M76.273 163.117L66.066 180.91M76.273 163.117l20.512-.054M66.066 180.91l-20.51.055M64 176.09l-16.406.043M96.785 163.063l12.008-16.63M101.898 164.223l9.606-13.3" stroke-width="1.2" stroke="#000" stroke-miterlimit="10" fill="none"/><path d="M108.887 179.62l-6.05-8.28" stroke-width="1.2" stroke="#00f" stroke-miterlimit="10" fill="none"/><path d="M102.836 171.34l-6.05-8.278M108.793 146.434l9.766 3.14" stroke-width="1.2" stroke="#000" stroke-miterlimit="10" fill="none"/><path d="M118.56 149.574l9.76 3.145" stroke-width="1.2" stroke="#f00" stroke-miterlimit="10" fill="none"/><path d="M108.793 146.434l-6.39-19.49" stroke-width="1.2" stroke="#000" stroke-miterlimit="10" fill="none"/><path d="M128.32 152.72l.028 10.253" stroke-width="1.2" stroke="#f00" stroke-miterlimit="10" fill="none"/><path d="M128.348 162.973l.027 10.257" stroke-width="1.2" stroke="#000" stroke-miterlimit="10" fill="none"/><path d="M124.32 147.22h8v11h-8zm0 0" fill="#fff"/><use xlink:href="#a" x="124.32" y="155.882" fill="#f00"/><path d="M128.375 173.23l-9.742 3.196" stroke-width="1.2" stroke="#000" stroke-miterlimit="10" fill="none"/><path d="M118.633 176.426l-9.746 3.195" stroke-width="1.2" stroke="#00f" stroke-miterlimit="10" fill="none"/><path d="M124.922 169.28l-7.797 2.56" stroke-width="1.2" stroke="#000" stroke-miterlimit="10" fill="none"/><path d="M117.125 171.84l-7.793 2.558" stroke-width="1.2" stroke="#00f" stroke-miterlimit="10" fill="none"/><path d="M128.375 173.23l16.63 12.012" stroke-width="1.2" stroke="#000" stroke-miterlimit="10" fill="none"/><path d="M105.887 174.12h7v11h-7zm0 0" fill="#fff"/><use xlink:href="#b" x="105.887" y="182.784" fill="#00f"/><path d="M145.004 185.242l19.488-6.394M148.457 189.188l15.59-5.114" stroke-width="1.2" stroke="#000" stroke-miterlimit="10" fill="none"/><path d="M145.06 205.75l-.03-10.254" stroke-width="1.2" stroke="#00f" stroke-miterlimit="10" fill="none"/><path d="M145.03 195.496l-.026-10.254M164.492 178.848l6.05 8.28" stroke-width="1.2" stroke="#000" stroke-miterlimit="10" fill="none"/><path d="M170.543 187.13l6.05 8.28" stroke-width="1.2" stroke="#f00" stroke-miterlimit="10" fill="none"/><path d="M164.492 178.848l6.285-19.524" stroke-width="1.2" stroke="#000" stroke-miterlimit="10" fill="none"/><path d="M176.594 195.41l-6.004 8.313" stroke-width="1.2" stroke="#f00" stroke-miterlimit="10" fill="none"/><path d="M170.59 203.723l-6.004 8.312" stroke-width="1.2" stroke="#000" stroke-miterlimit="10" fill="none"/><path d="M172.594 189.91h8v11h-8zm0 0" fill="#fff"/><use xlink:href="#a" x="172.594" y="198.573" fill="#f00"/><path d="M164.586 212.035l-9.766-3.14" stroke-width="1.2" stroke="#000" stroke-miterlimit="10" fill="none"/><path d="M154.82 208.895l-9.76-3.145" stroke-width="1.2" stroke="#00f" stroke-miterlimit="10" fill="none"/><path d="M164.11 206.813l-7.81-2.512" stroke-width="1.2" stroke="#000" stroke-miterlimit="10" fill="none"/><path d="M156.3 204.3l-7.808-2.515" stroke-width="1.2" stroke="#00f" stroke-miterlimit="10" fill="none"/><path d="M142.06 200.25h7v11h-7zm0 0" fill="#fff"/><use xlink:href="#b" x="142.059" y="208.913" fill="#00f"/><path d="M170.777 159.324l20.05-4.32M171.766 154.172l16.043-3.453M157.012 144.117l13.765 15.207M190.828 155.004l6.285-19.524M197.113 135.48l-13.765-15.207M192.16 137.2l-11.015-12.165M197.113 135.48l10.028-2.16" stroke-width="1.2" stroke="#000" stroke-miterlimit="10" fill="none"/><path d="M207.14 133.32l10.024-2.16" stroke-width="1.2" stroke="#f00" stroke-miterlimit="10" fill="none"/><path d="M183.348 120.273l-20.05 4.32M163.297 124.594l-6.285 19.523M167.262 128.023l-5.028 15.622" stroke-width="1.2" stroke="#000" stroke-miterlimit="10" fill="none"/><path d="M217.164 131.16l6.883 7.602" stroke-width="1.2" stroke="#f00" stroke-miterlimit="10" fill="none"/><path d="M224.047 138.762l6.887 7.6" stroke-width="1.2" stroke="#000" stroke-miterlimit="10" fill="none"/><path d="M213.164 125.66h8v11h-8zm0 0" fill="#fff"/><use xlink:href="#a" x="213.164" y="134.323" fill="#f00"/><path d="M230.934 146.363l20.05-4.32M253.28 142.785l3.142-9.762" stroke-width="1.2" stroke="#000" stroke-miterlimit="10" fill="none"/><path d="M256.422 133.023l3.144-9.765" stroke-width="1.2" stroke="#f00" stroke-miterlimit="10" fill="none"/><path d="M248.688 141.305l3.14-9.762" stroke-width="1.2" stroke="#000" stroke-miterlimit="10" fill="none"/><path d="M251.828 131.543l3.145-9.762" stroke-width="1.2" stroke="#f00" stroke-miterlimit="10" fill="none"/><path d="M250.984 142.043l6.883 7.605" stroke-width="1.2" stroke="#000" stroke-miterlimit="10" fill="none"/><path d="M257.867 149.648l6.883 7.602" stroke-width="1.2" stroke="#f00" stroke-miterlimit="10" fill="none"/><path d="M253.27 117.02h8v11h-8zm0 0" fill="#fff"/><use xlink:href="#a" x="253.27" y="125.683" fill="#f00"/><path d="M257.75 151.75h15v11h-15zm0 0" fill="#fff"/><g fill="#f00"><use xlink:href="#a" x="257.75" y="160.413"/><use xlink:href="#c" x="265.092" y="160.413"/></g><path d="M102.402 126.945l13.684-15.28M100.176 122.195l10.945-12.222M82.328 122.734l20.074 4.21M116.086 111.664l-6.39-19.492M109.695 92.172l-20.078-4.207M106.695 96.477L90.637 93.11M89.617 87.965l-13.68 15.28M75.938 103.246l6.39 19.488M81.16 103.688l5.113 15.593" stroke-width="1.2" stroke="#000" stroke-miterlimit="10" fill="none"/></g></svg>
